X:1
T:Ung iour Colin
T:Clement Janequin
T:Source : Livre I de 29 chansons nouvelles à 4 parties---Paris---P.Attaingnant---1535. Editor : André Vierendeels (24/09/18)
T:Ung iour Colin
T:©
T:©
T:©
C:Clement Janequin
Z:©
%%score [ 1 2 [ 3 4 ] ]
L:1/8
Q:1/4=96
M:2/2
K:F
V:1 treble nm="Soprano" snm="S"
V:2 treble nm="Alto" snm="A"
V:3 treble-8 nm="Tenor 1" snm="T 1"
V:4 treble-8 nm="Tenor 2" snm="T 2"
V:1
 z2 z G A2 B2 | c2 d2 BcAA | G2 z G A2 B2 | c2 d2 BcAA | G2 z2 z4 | z2 c2 ABGG | F8- | F4 z2 d2 | %8
w: Ung iour Co-|lin, la col- lec- te'ac- cu-|la en luy di-|sant or mec- tez le cul|là,|or mec- tez le cul|là,|_ puis|
 cBAB cddc | ddBB A2 c2 | AAGG F2 B2 |[M:3/4] B4 d2 | c4 B2 | A4 B2 | B4 B2 | A4 G2 | %16
w: de si pres se print à la co-|ler, que la- co- lant qu'en|bri- co, bri- co- lant la|gou- te|fist cou-|ler, la|gou- te|fist cou-|
[M:2/2] FFBB A2 z D | E z z A DGGF | GBBB A2 z D | E z z A DGGF | BAGG GFBA | GGGF GDEE | %22
w: ler, et pour cu- ler, cu-|ler ia- mais ne re- cu-|la, et pour cu- ler cu-|ler ia- mais ne re- cu-|la, ne re- cu- la, ia- mais ne|re- cu- la, ne re- cu- la, ia-|
 DB,EE D4- | D8 |] %24
w: mais ne re- cu- la.|_|
V:2
 D2 CB, F2 z2 | A2 AA GG F2 | B2 AG F2 z2 | A2 AA GG F2 | B2 AG FDGB | AAGG F2 z C | A,B,CC D2 DD | %7
w: Ung iour Co- lin,|la col- lec- te'ac- cu- la,|en luy di- sant|or mec- tez le cul là,|en luy di- sant or mec- tez|le cul, le cul là, or|mec- tez le cul là, le cul|
 D3 F E2 D2 | AGFF ED A2 | z4 z DEE | CCCC A,A,G,G |[M:3/4] F4 D2 | G4 G2 | E4 F2 | F4 F2 | F4 D2 | %16
w: là, puis de si|pres se print à la co- ler,|que la co-|lant qu'en bri- co, bri- colant _ la|gou- te|fist cou-|ler, la|gou- te|fist cou-|
[M:2/2] DD D2 F2 G2- | GGGF GE D2 | z D D2 F2 G2- | GGGF GEDA | GFGE DAGF | GEDD DB, z G, | %22
w: ler, et pour cu- ler|_ ia- mais ne re- cu- la,|et por cu- ler|_ ia- mais ne re- cu- la, ia-|mais ne re- cu- la, ia- mais ne|re- cu- la, ne re- cu, ia-|
 B,DCC B,4- | B,8 |] %24
w: mais ne re- cu- la.|_|
V:3
 z2 z d d2 d2 | f3 f dedd | d2 z B d2 d2 | f3 f dedd | d2 z2 z fed | ff e2 z dce | z dcA BB B2 | %7
w: Ung iour Co-|lin, la col- lec- te'ac- cu-|la, en luy di-|sant or mec- tez le cul|là, or me- tez|le cul là, or- mec- tez,|or mec- tez le cul là,|
 BBBd c2 B2 | A2 z2 g2 fe | defg gfgg | ffee d2 d2 |[M:3/4] d4 f2 | e4 d2 | c4 d2 | d4 d2 | c4 B2 | %16
w: le cul là, puis de si|pres, puis de si|pres se print à la co- ler, qu'en|bri- co, bro- co- lant la|gou- te|fist cou-|ler, la|gou- te|fist cou-|
[M:2/2] A2 z G A2 B2 | c2 d2 BcAA | G2 z G A2 B2 | c2 d2 BcAA | z dBc AA z d | BcAA G4- | G8- | %23
w: ler et pour cu-|ler ia- mais ne re- cu-|la, et pour cu-|ler ia- mais ne re- cu,|ia- mais ne re- cu, ia-|mais ne re- cu- la.|_|
 G8 |] %24
w: |
V:4
 z2 z G D2 G2 | F2 D2 GCDD | G2 z G D2 G2 | F2 D2 GCDD | G2 c2 ABGG | F2 C2 DB, C2 | %6
w: Ung iour Co-|lin, la col- lec- te'ac- cu-|la, en luy di-|sant or mec- tez le cul|là, or mec- tez le cul|là, or mec- tez le|
 DB,FF B,2 B,B, | B,4 z4 | z2 d2 cBAA | BBAG d2 c2 | FFCC D2 G2 |[M:3/4] B4 B2 | c4 G2 | A4 B,2 | %14
w: cul là, or mec- tez le cul|là,|puis de si pres se|print à la co- ler, qu'en|bri- co bri- co- lant le|gou- te|fist cou-|let, la|
 B,4 B,2 | F4 G2 |[M:2/2] D2 z2 D2 G2 | C G2 D GCDD | G4 D2 G2 | C G2 D GCDD | GDEC D2 z D | %21
w: gou- te|fist cou-|ler et pour|cu- ler ia- mais ne re- cu-|la, et pour|cu- ler ia- mais ne re- cu-|la, ne re- cu- la, ia-|
 GCDD G2 C2 | GGCC G4- | G8 |] %24
w: mais ne re- cu- la, ja-|mais ne re- cu- la.|_|

